Simply white circles/scalable/places/folder-templates.svg

<?xml version="1.0" encoding="UTF-8" standalone="no"?>
<!-- Created with Inkscape (http://www.inkscape.org/) -->

<svg
   xmlns:dc="http://purl.org/dc/elements/1.1/"
   xmlns:cc="http://creativecommons.org/ns#"
   xmlns:rdf="http://www.w3.org/1999/02/22-rdf-syntax-ns#"
   xmlns:svg="http://www.w3.org/2000/svg"
   xmlns="http://www.w3.org/2000/svg"
   xmlns:sodipodi="http://sodipodi.sourceforge.net/DTD/sodipodi-0.dtd"
   xmlns:inkscape="http://www.inkscape.org/namespaces/inkscape"
   width="48"
   height="48"
   viewBox="0 0 12.7 12.7"
   version="1.1"
   id="svg829"
   inkscape:version="0.92.3 (2405546, 2018-03-11)"
   sodipodi:docname="folder-templates.svg">
  <defs
     id="defs823">
    <linearGradient
       id="linearGradient2816"
       y2="30.191"
       gradientUnits="userSpaceOnUse"
       x2="44.118999"
       gradientTransform="matrix(0,0.26458333,0.26458333,0,-6.5855617,281.24163)"
       y1="19.948"
       x1="33.876999">
      <stop
         id="stop3414"
         style="stop-color:#fcfcfc"
         offset="0" />
      <stop
         id="stop3416"
         style="stop-color:#cbcdd9"
         offset="1" />
    </linearGradient>
  </defs>
  <sodipodi:namedview
     id="base"
     pagecolor="#ffffff"
     bordercolor="#666666"
     borderopacity="1.0"
     inkscape:pageopacity="0.0"
     inkscape:pageshadow="2"
     inkscape:zoom="3.6239223"
     inkscape:cx="-46.895977"
     inkscape:cy="21.725492"
     inkscape:document-units="mm"
     inkscape:current-layer="layer1"
     showgrid="false"
     showguides="true"
     inkscape:guide-bbox="true"
     inkscape:window-width="1366"
     inkscape:window-height="719"
     inkscape:window-x="0"
     inkscape:window-y="25"
     inkscape:window-maximized="1"
     scale-x="1.9"
     units="px" />
  <metadata
     id="metadata826">
    <rdf:RDF>
      <cc:Work
         rdf:about="">
        <dc:format>image/svg+xml</dc:format>
        <dc:type
           rdf:resource="http://purl.org/dc/dcmitype/StillImage" />
        <dc:title></dc:title>
      </cc:Work>
    </rdf:RDF>
  </metadata>
  <g
     inkscape:label="Capa 1"
     inkscape:groupmode="layer"
     id="layer1"
     transform="translate(0,-284.3)">
    <path
       style="fill:#e6e6e6;fill-opacity:1;stroke-width:0.52516764"
       d="M 23.978516 0.27539062 A 23.770509 23.770509 0 0 0 0.20703125 24.046875 A 23.770509 23.770509 0 0 0 23.978516 47.816406 A 23.770509 23.770509 0 0 0 47.748047 24.046875 A 23.770509 23.770509 0 0 0 23.978516 0.27539062 z M 23.910156 3.8144531 A 20.436071 20.436071 0 0 1 44.345703 24.25 A 20.436071 20.436071 0 0 1 23.910156 44.685547 A 20.436071 20.436071 0 0 1 3.4726562 24.25 A 20.436071 20.436071 0 0 1 23.910156 3.8144531 z M 11.447266 10.533203 L 11.447266 36.935547 L 37.849609 36.935547 L 11.447266 10.533203 z M 16.726562 22.853516 L 25.527344 31.654297 L 16.726562 31.654297 L 16.726562 22.853516 z "
       transform="matrix(0.26458333,0,0,0.26458333,0,284.3)"
       id="path1374" />
  </g>
</svg>

<?xml version="1.0" encoding="UTF-8" standalone="no"?>
<svg
   xmlns:dc="http://purl.org/dc/elements/1.1/"
   xmlns:cc="http://creativecommons.org/ns#"
   xmlns:rdf="http://www.w3.org/1999/02/22-rdf-syntax-ns#"
   xmlns:svg="http://www.w3.org/2000/svg"
   xmlns="http://www.w3.org/2000/svg"
   xmlns:sodipodi="http://sodipodi.sourceforge.net/DTD/sodipodi-0.dtd"
   xmlns:inkscape="http://www.inkscape.org/namespaces/inkscape"
   width="48"
   height="48"
   version="1.1"
   viewBox="0 0 12.7 12.7"
   id="svg8"
   sodipodi:docname="folder-templates.svg"
   inkscape:version="0.92.3 (2405546, 2018-03-11)">
  <defs
     id="defs12" />
  <sodipodi:namedview
     pagecolor="#ffffff"
     bordercolor="#666666"
     borderopacity="1"
     objecttolerance="10"
     gridtolerance="10"
     guidetolerance="10"
     inkscape:pageopacity="0"
     inkscape:pageshadow="2"
     inkscape:window-width="883"
     inkscape:window-height="480"
     id="namedview10"
     showgrid="false"
     inkscape:zoom="4.9166667"
     inkscape:cx="4.1694917"
     inkscape:cy="24"
     inkscape:window-x="0"
     inkscape:window-y="25"
     inkscape:window-maximized="0"
     inkscape:current-layer="svg8" />
  <metadata
     id="metadata2">
    <rdf:RDF>
      <cc:Work
         rdf:about="">
        <dc:format>image/svg+xml</dc:format>
        <dc:type
           rdf:resource="http://purl.org/dc/dcmitype/StillImage" />
        <dc:title></dc:title>
      </cc:Work>
    </rdf:RDF>
  </metadata>
  <g
     transform="translate(0,-284.3)"
     id="g6"
     style="fill:#e6e6e6">
    <path
       transform="matrix(.26458 0 0 .26458 0 284.3)"
       d="m23.979 0.27539a23.771 23.771 0 0 0 -23.771 23.771 23.771 23.771 0 0 0 23.771 23.77 23.771 23.771 0 0 0 23.77 -23.77 23.771 23.771 0 0 0 -23.77 -23.771zm-0.06836 3.5391a20.436 20.436 0 0 1 20.436 20.436 20.436 20.436 0 0 1 -20.436 20.436 20.436 20.436 0 0 1 -20.437 -20.436 20.436 20.436 0 0 1 20.437 -20.436zm-12.463 6.7187v26.402h26.402l-26.402-26.402zm5.2793 12.32l8.8008 8.8008h-8.8008v-8.8008z"
       fill="#1a1a1a"
       stroke-width=".52517"
       id="path4"
       style="fill:#e6e6e6" />
  </g>
</svg>
